X:1
T:Title
%%score { ( 1 3 ) | ( 2 4 ) }
L:1/8
Q:1/4=94
M:4/4
K:Bb
V:1 treble nm="Grand Piano"
V:3 treble 
V:2 bass 
V:4 bass 
V:1
 [Fd][DB][DF][D^F] [EG]2 [GB][Fc] | [Fd] [DB]2 [EG] [DF]4 | Fcc=B c4 | [DF][Fd][Fd][=E_d] [F=d]4 | %4
w: C.~Austin~Miles * * * * * *||||
 [Fd][DB][DF][D^F] [EG]2 [GB][Fc] | [Fd] [DB]2 [EG] [DF]4 | [=EG][Ec][Ec][Ed] [Ec]2 [EG]2 | c8 | %8
w: ||||
 [DF] [DG]2 [DA] [DB] [Ec]2 [=E_d] | z4 [F=d]4[K:bass] |[M:3/4][K:treble] [Ge] [Ge]2 [Ge] [GB]2 | %11
w: |||
[M:1/4] [^Fc]2 |[M:4/4] [Fd]4 [DB]4 | c c2 =B cedc | B2 c2 [Fd]4 | [=EG]2 [EA]2 [EB]2 [Ec]2 | %16
w: |||||
 dcdc A2 G2 | [DF] [DG]2 [DA] [DB] [Ec]2 [=E_d] | z4 [F=d]4[K:bass] | %19
w: |||
[M:3/4][K:treble] [Ge] [Ge]2 [Ge] [GB]2 |[M:1/4] [Gc]2 |[M:4/4] [^Fd]6 z2 | %22
w: |||
 [Gc] [GB]2 [GA] [Ac][GB][FA][EG] | [DF]2 [Fd]2 [_Af]2 [Ge]2 | [Fd] [DB]2 [Ge] [Fd]2 [Ec]2 | %25
w: |||
 [DB]6 z2 |] %26
w: |
V:2
 [B,,B,][B,,B,][B,,B,][B,,B,] [E,B,]2 [E,B,][E,B,] | [B,,B,] [B,,B,]2 [B,,B,] [B,,B,]4 | %2
 [F,A,][F,A,E][F,A,E][F,_A,D] [F,=A,E]4 | [B,,B,][B,,B,][B,,B,][B,,B,] [B,,B,]4 | %4
 [B,,B,][B,,B,][B,,B,][B,,B,] [E,B,]2 [E,B,][E,B,] | [B,,B,] [B,,B,]2 [B,,B,] [B,,B,]4 | %6
 [C,B,][C,B,][C,B,][C,B,] [C,B,]2 [C,B,]2 | [F,E]2- [F,-CE-]2 [F,-B,E-]2 [F,A,E]2 | %8
 [B,,B,] [B,,B,]2 [B,,B,] [B,,F,] [B,,F,]2 [B,,F,] | z4 B,4 | %10
[M:3/4] [E,B,] [E,B,]2 [E,B,] [E,B,]2 |[M:1/4] [E,B,]2 |[M:4/4] [B,,B,]4 [B,,B,]4 | %13
 [F,A,E] [F,A,E]2 [F,_A,D] [F,=A,E][F,A,G][F,B,F][F,A,E] | [G,B,D]2 [F,A,E]2 [B,,B,]4 | %15
 [C,B,]2 [C,A,]2 [C,G,]2 [C,G,]2 | [F,A,E][F,A,E][F,A,E][F,A,E] [F,CE]2 [F,A,E]2 | %17
 [B,,B,] [B,,B,]2 [B,,B,] [B,,F,] [B,,F,]2 [B,,F,] | z4 B,4 | %19
[M:3/4] [E,B,] [E,B,]2 [E,B,] [E,B,]2 |[M:1/4] [E,G,]2 |[M:4/4] [D,A,]6 z2 | %22
 [E,G,] [E,G,]2 [E,G,] [E,B,][E,B,][E,B,][E,B,] | [B,,B,]2 [B,,B,]2 [D,B,]2 [E,B,]2 | %24
 [F,B,] [G,B,]2 [E,B,] [F,B,]2 [F,A,]2 | [B,,B,]6 z2 |] %26
V:3
 x8 | x8 | x8 | x8 | x8 | x8 | x8 | z2 A2 G2 F2 | x8 | [Fd]2 [=E_d]2 z[K:bass] C,D,F, | %10
[M:3/4][K:treble] x6 |[M:1/4] x2 |[M:4/4] x8 | x8 | x8 | x8 | x8 | x8 | %18
 [Fd]2 [=E_d]2 z[K:bass] C,D,F, |[M:3/4][K:treble] x6 |[M:1/4] x2 |[M:4/4] x8 | x8 | x8 | x8 | %25
 x8 |] %26
V:4
 x8 | x8 | x8 | x8 | x8 | x8 | x8 | A,6 z2 | x8 | [B,,B,]2 [B,,B,]2 .B,,2 z2 |[M:3/4] x6 | %11
[M:1/4] x2 |[M:4/4] x8 | x8 | x8 | x8 | x8 | x8 | [B,,B,]2 [B,,B,]2 .B,,2 z2 |[M:3/4] x6 | %20
[M:1/4] x2 |[M:4/4] x8 | x8 | x8 | x8 | x8 |] %26

